assets/images/tiktok.svg

<svg width="32" height="32" viewBox="0 0 32 32" fill="none" xmlns="http://www.w3.org/2000/svg">
<g clip-path="url(#clip0_57_4)">
<path d="M16.707 0.027C18.454 0 20.187 0.014 21.92 0C22.027 2.04 22.76 4.12 24.253 5.56C25.746 7.04 27.853 7.72 29.906 7.947V13.32C27.986 13.253 26.053 12.853 24.306 12.027C23.546 11.68 22.839 11.24 22.146 10.787C22.133 14.68 22.159 18.574 22.119 22.454C22.012 24.321 21.399 26.174 20.319 27.707C18.572 30.267 15.546 31.934 12.439 31.987C10.532 32.094 8.62601 31.574 6.99901 30.614C4.30601 29.027 2.41201 26.121 2.13201 23.001C2.10501 22.334 2.09201 21.668 2.11901 21.014C2.35901 18.481 3.61201 16.054 5.55901 14.401C7.77201 12.481 10.866 11.561 13.759 12.108C13.786 14.081 13.706 16.055 13.706 18.028C12.386 17.601 10.839 17.721 9.67901 18.521C8.83901 19.068 8.19901 19.908 7.86601 20.854C7.58601 21.534 7.66601 22.281 7.67901 23.001C7.99901 25.188 10.106 27.028 12.346 26.828C13.839 26.815 15.266 25.948 16.039 24.681C16.292 24.241 16.572 23.788 16.586 23.268C16.719 20.881 16.666 18.508 16.679 16.121C16.692 10.748 16.666 5.388 16.706 0.028L16.707 0.027Z" fill="white"/>
</g>
<defs>
<clipPath id="clip0_57_4">
<rect width="32" height="32" fill="white"/>
</clipPath>
</defs>
</svg>

<!-- Generated by IcoMoon.io -->
<svg version="1.1" xmlns="http://www.w3.org/2000/svg" width="32" height="32" viewBox="0 0 32 32">
<title>tiktok</title>
<path d="M16.707 0.027c1.747-0.027 3.48-0.013 5.213-0.027 0.107 2.040 0.84 4.12 2.333 5.56 1.493 1.48 3.6 2.16 5.653 2.387v5.373c-1.92-0.067-3.853-0.467-5.6-1.293-0.76-0.347-1.467-0.787-2.16-1.24-0.013 3.893 0.013 7.787-0.027 11.667-0.107 1.867-0.72 3.72-1.8 5.253-1.747 2.56-4.773 4.227-7.88 4.28-1.907 0.107-3.813-0.413-5.44-1.373-2.693-1.587-4.587-4.493-4.867-7.613-0.027-0.667-0.040-1.333-0.013-1.987 0.24-2.533 1.493-4.96 3.44-6.613 2.213-1.92 5.307-2.84 8.2-2.293 0.027 1.973-0.053 3.947-0.053 5.92-1.32-0.427-2.867-0.307-4.027 0.493-0.84 0.547-1.48 1.387-1.813 2.333-0.28 0.68-0.2 1.427-0.187 2.147 0.32 2.187 2.427 4.027 4.667 3.827 1.493-0.013 2.92-0.88 3.693-2.147 0.253-0.44 0.533-0.893 0.547-1.413 0.133-2.387 0.080-4.76 0.093-7.147 0.013-5.373-0.013-10.733 0.027-16.093z"></path>
</svg>
